src/icons/windsock.svg

<?xml version="1.0" encoding="UTF-8" standalone="no"?><svg viewBox="0 0 32 32" xmlns="http://www.w3.org/2000/svg" xmlns:xlink="http://www.w3.org/1999/xlink" xml:space="preserve" fill-rule="evenodd" clip-rule="evenodd" stroke-linejoin="round" stroke-miterlimit="2" fill="currentColor"><g transform="translate(-2.162 -2.352)"><path d="M25.12 14.368c.352.224.48.704.32 1.088l-1.12 2.72a.9.9 0 0 1-.832.544h-.16l-4.64-.832c-.128 0-.224-.032-.352-.064l-2.112-.384c-.064-.032-.128-.032-.192-.064H16c-.192-.096-.352-.224-.448-.416l-1.696-2.176c-.192-.256-.256-.608-.128-.896l.224-.544-1.344-.544v13.92c.032.512-.384.896-.896.896a.894.894 0 0 1-.896-.896V9.984c0-.512.416-.896.896-.896s.896.416.896.896v.864l2.016.832.224-.544c.128-.288.384-.512.704-.544l2.688-.384c.224-.096.448-.096.704 0 .096.064.192.128.256.192zM17.6 15.84l.544.096 1.312-3.264-.448-.288zm2.336.416.544.096.96-2.368-.448-.288zm-2.752-4.128-.864.128-.736 1.792.544.672zm5.728 4.672.576-1.408-.512-.352-.672 1.664z"/></g></svg>

<?xml version="1.0" encoding="UTF-8" standalone="no"?>
<!DOCTYPE svg PUBLIC "-//W3C//DTD SVG 1.1//EN" "http://www.w3.org/Graphics/SVG/1.1/DTD/svg11.dtd">
<svg width="100%" height="100%" viewBox="0 0 32 32" version="1.1" xmlns="http://www.w3.org/2000/svg" xmlns:xlink="http://www.w3.org/1999/xlink" xml:space="preserve" xmlns:serif="http://www.serif.com/" style="fill-rule:evenodd;clip-rule:evenodd;stroke-linejoin:round;stroke-miterlimit:2;">
    <g transform="matrix(1,0,0,1,-2.16205,-2.352)">
        <path d="M12.608,12.8L12.608,10.848L14.624,11.68L14.848,11.136C14.976,10.848 15.232,10.624 15.552,10.592L18.24,10.208C18.464,10.112 18.688,10.112 18.944,10.208C19.04,10.272 19.136,10.336 19.2,10.4L25.12,14.368C25.472,14.592 25.6,15.072 25.44,15.456L24.32,18.176C24.16,18.528 23.84,18.72 23.488,18.72L23.328,18.72L18.688,17.888C18.56,17.888 18.464,17.856 18.336,17.824L16.224,17.44C16.16,17.408 16.096,17.408 16.032,17.376L16,17.376C15.808,17.28 15.648,17.152 15.552,16.96L13.856,14.784C13.664,14.528 13.6,14.176 13.728,13.888L13.952,13.344L12.608,12.8ZM17.184,12.128L16.32,12.256L15.584,14.048L16.128,14.72L17.184,12.128ZM19.936,16.256L20.48,16.352L21.44,13.984L20.992,13.696L19.936,16.256ZM22.912,16.8L23.488,15.392L22.976,15.04L22.304,16.704L22.912,16.8ZM17.6,15.84L18.144,15.936L19.456,12.672L19.008,12.384L17.6,15.84Z"/>
    </g>
    <g transform="matrix(1,0,0,1,-2.16205,-2.352)">
        <path d="M12.608,9.984L12.608,26.72C12.64,27.232 12.224,27.616 11.712,27.616C11.2,27.616 10.816,27.2 10.816,26.72L10.816,9.984C10.816,9.472 11.232,9.088 11.712,9.088C12.192,9.088 12.608,9.504 12.608,9.984Z"/>
    </g>
</svg>
